packages/icons/src/list-bullet.svg

<svg width="15" height="15" viewBox="0 0 15 15" fill="none" xmlns="http://www.w3.org/2000/svg">
  <path
    fill-rule="evenodd"
    clip-rule="evenodd"
    d="M1.5 5.25C1.91421 5.25 2.25 4.91421 2.25 4.5C2.25 4.08579 1.91421 3.75 1.5 3.75C1.08579 3.75 0.75 4.08579 0.75 4.5C0.75 4.91421 1.08579 5.25 1.5 5.25ZM4 4.5C4 4.22386 4.22386 4 4.5 4H13.5C13.7761 4 14 4.22386 14 4.5C14 4.77614 13.7761 5 13.5 5H4.5C4.22386 5 4 4.77614 4 4.5ZM4.5 7C4.22386 7 4 7.22386 4 7.5C4 7.77614 4.22386 8 4.5 8H13.5C13.7761 8 14 7.77614 14 7.5C14 7.22386 13.7761 7 13.5 7H4.5ZM4.5 10C4.22386 10 4 10.2239 4 10.5C4 10.7761 4.22386 11 4.5 11H13.5C13.7761 11 14 10.7761 14 10.5C14 10.2239 13.7761 10 13.5 10H4.5ZM2.25 7.5C2.25 7.91421 1.91421 8.25 1.5 8.25C1.08579 8.25 0.75 7.91421 0.75 7.5C0.75 7.08579 1.08579 6.75 1.5 6.75C1.91421 6.75 2.25 7.08579 2.25 7.5ZM1.5 11.25C1.91421 11.25 2.25 10.9142 2.25 10.5C2.25 10.0858 1.91421 9.75 1.5 9.75C1.08579 9.75 0.75 10.0858 0.75 10.5C0.75 10.9142 1.08579 11.25 1.5 11.25Z"
    fill="currentColor"
  />
</svg>

<svg xmlns="http://www.w3.org/2000/svg" width="15" height="15" fill="none"><path fill="currentColor" fill-rule="evenodd" d="M1.5 5.25a.75.75 0 1 0 0-1.5.75.75 0 0 0 0 1.5M4 4.5a.5.5 0 0 1 .5-.5h9a.5.5 0 0 1 0 1h-9a.5.5 0 0 1-.5-.5M4.5 7a.5.5 0 0 0 0 1h9a.5.5 0 0 0 0-1zm0 3a.5.5 0 0 0 0 1h9a.5.5 0 0 0 0-1zM2.25 7.5a.75.75 0 1 1-1.5 0 .75.75 0 0 1 1.5 0m-.75 3.75a.75.75 0 1 0 0-1.5.75.75 0 0 0 0 1.5" clip-rule="evenodd"/></svg>
